cellphone-check.svg

<svg fill="currentColor" viewBox="0 0 24 24"><path d="M14.54 23H7a2 2 0 0 1-2-2V3c0-1.11.89-2 2-2h10a2 2 0 0 1 2 2v10c-.7 0-1.37.13-2 .35V5H7v14h6c0 1.54.58 2.94 1.54 4m3.21-.84-2.75-3L16.16 18l1.59 1.59L21.34 16l1.16 1.41z"/></svg>

<svg  viewBox="0 0 24 24" fill="currentColor"><path  d="M14.54 23H7C5.9 23 5 22.11 5 21V3C5 1.89 5.89 1 7 1H17C18.1 1 19 1.89 19 3V13C18.3 13 17.63 13.13 17 13.35V5H7V19H13C13 20.54 13.58 21.94 14.54 23M17.75 22.16L15 19.16L16.16 18L17.75 19.59L21.34 16L22.5 17.41L17.75 22.16"/></svg>
